blockchains/ethereum/assets/0x960b236A07cf122663c4303350609A66A7B288C0/logo.svg

<svg fill="none" height="250" viewBox="0 0 250 250" width="250" xmlns="http://www.w3.org/2000/svg" xmlns:xlink="http://www.w3.org/1999/xlink"><linearGradient id="a"><stop offset="0" stop-color="#01e8f7"/><stop offset="1" stop-color="#00c2ff"/></linearGradient><linearGradient id="b" gradientUnits="userSpaceOnUse" x1="202.734" x2="208.281" xlink:href="#a" y1="94.4141" y2="160.703"/><linearGradient id="c" gradientUnits="userSpaceOnUse" x1="93.5547" x2="157.93" y1="58.789" y2="160.976"><stop offset="0" stop-color="#01e8f7"/><stop offset="1" stop-color="#00b3ec"/></linearGradient><linearGradient id="d" gradientUnits="userSpaceOnUse" x1="6433.58" x2="6679.82" xlink:href="#a" y1="7313.29" y2="-596.636"/><clipPath id="e"><path d="m0 0h250v250h-250z"/></clipPath><g clip-path="url(#e)"><path d="m125 250c69.036 0 125-55.964 125-125 0-69.0356-55.964-125-125-125-69.0356 0-125 55.9644-125 125 0 69.036 55.9644 125 125 125z" fill="#fff"/><path d="m222.656 116.719c.86-18.0081-11.718-29.9612-25.937-38.1643l-9.219 54.2573c1.903-.264 3.841-.115 5.682.438 1.84.553 3.539 1.496 4.982 2.766 1.653 1.621 2.641 3.802 2.771 6.114.13 2.311-.607 4.589-2.068 6.386 8.906-1.485 22.774-10.039 23.789-31.797z" fill="url(#b)"/><g clip-rule="evenodd" fill-rule="evenodd"><path d="m101.562 53.6327-10.937-11.0546c16.563-2.0313 60.273.5468 102.578 27.0703.387 2.3671.387 4.7813 0 7.1484l3.555 1.7969c2.842 4.7137 4.713 9.9475 5.505 15.3943.791 5.4468.487 10.997-.896 16.324-3.672 14.688-9.961 21.172-12.773 22.5-5.664 0-15.313 3.282-18.438 17.813s-9.14 17.695-11.718 17.461l-62.5005.742-41.25-24.297-5.9375-50.2733 11.7187-15.625 20.9375-17.1093 14.9219-6.0938zm73.868 20.586c-1.765 1.8707-3.823 3.4408-6.094 4.6484-16.055-3.4375-21.875-11.7187-21.875-11.7187 13.652-.4078 27.157 2.9145 39.062 9.6093-3.625-1.1376-7.334-1.9866-11.093-2.539z" fill="url(#c)"/><path d="m169.609 150.625c-11.89 5.718-24.931 8.644-38.125 8.554-39.4137 0-71.3278-24.765-71.3278-55.273 0-22.5781 17.4219-41.9531 42.3828-50.5469-47.4999 2.7344-85.7031 40.8985-85.7031 88.0079 0 54.375 48.4766 99.297 108.1641 99.297 20.743-.172 41.065-5.868 58.875-16.504 17.81-10.635 32.464-25.824 42.453-44.004-26.758 6.016-58.359-5.43-56.719-29.531z" fill="url(#d)"/></g></g></svg>

<svg width="250" height="250" viewBox="0 0 250 250" fill="none" xmlns="http://www.w3.org/2000/svg">
<g clip-path="url(#clip0_37_33791)">
<path d="M125 250C194.036 250 250 194.036 250 125C250 55.9644 194.036 0 125 0C55.9644 0 0 55.9644 0 125C0 194.036 55.9644 250 125 250Z" fill="white"/>
<path d="M222.656 116.719C223.516 98.7109 210.938 86.7578 196.719 78.5547L187.5 132.812C189.403 132.548 191.341 132.697 193.182 133.25C195.022 133.803 196.721 134.746 198.164 136.016C199.817 137.637 200.805 139.818 200.935 142.13C201.065 144.441 200.328 146.719 198.867 148.516C207.773 147.031 221.641 138.477 222.656 116.719Z" fill="url(#paint0_linear_37_33791)"/>
<path fill-rule="evenodd" clip-rule="evenodd" d="M101.562 53.6327L90.625 42.5781C107.188 40.5468 150.898 43.1249 193.203 69.6484C193.59 72.0155 193.59 74.4297 193.203 76.7968L196.758 78.5937C199.6 83.3074 201.471 88.5412 202.263 93.988C203.054 99.4348 202.75 104.985 201.367 110.312C197.695 125 191.406 131.484 188.594 132.812C182.93 132.812 173.281 136.094 170.156 150.625C167.031 165.156 161.016 168.32 158.438 168.086L95.9375 168.828L54.6875 144.531L48.75 94.2577L60.4687 78.6327L81.4062 61.5234L96.3281 55.4296L101.562 53.6327ZM175.43 74.2187C173.665 76.0894 171.607 77.6595 169.336 78.8671C153.281 75.4296 147.461 67.1484 147.461 67.1484C161.113 66.7406 174.618 70.0629 186.523 76.7577C182.898 75.6201 179.189 74.7711 175.43 74.2187Z" fill="url(#paint1_linear_37_33791)"/>
<path fill-rule="evenodd" clip-rule="evenodd" d="M169.609 150.625C157.719 156.343 144.678 159.269 131.484 159.179C92.0703 159.179 60.1562 134.414 60.1562 103.906C60.1562 81.3279 77.5781 61.9529 102.539 53.3591C55.0391 56.0935 16.8359 94.2576 16.8359 141.367C16.8359 195.742 65.3125 240.664 125 240.664C145.743 240.492 166.065 234.796 183.875 224.16C201.685 213.525 216.339 198.336 226.328 180.156C199.57 186.172 167.969 174.726 169.609 150.625Z" fill="url(#paint2_linear_37_33791)"/>
</g>
<defs>
<linearGradient id="paint0_linear_37_33791" x1="202.734" y1="94.4141" x2="208.281" y2="160.703" gradientUnits="userSpaceOnUse">
<stop stop-color="#01E8F7"/>
<stop offset="1" stop-color="#00C2FF"/>
</linearGradient>
<linearGradient id="paint1_linear_37_33791" x1="93.5547" y1="58.789" x2="157.93" y2="160.976" gradientUnits="userSpaceOnUse">
<stop stop-color="#01E8F7"/>
<stop offset="1" stop-color="#00B3EC"/>
</linearGradient>
<linearGradient id="paint2_linear_37_33791" x1="6433.58" y1="7313.29" x2="6679.82" y2="-596.636" gradientUnits="userSpaceOnUse">
<stop stop-color="#01E8F7"/>
<stop offset="1" stop-color="#00C2FF"/>
</linearGradient>
<clipPath id="clip0_37_33791">
<rect width="250" height="250" fill="white"/>
</clipPath>
</defs>
</svg>
